X:1
T:Title
%%score 1 { ( 2 3 7 ) | ( 4 5 6 ) }
L:1/8
M:3/4
K:D
V:1 treble nm="Choir Aahs"
V:2 treble nm="Grand Piano"
V:3 treble 
V:7 treble 
V:4 bass 
V:5 bass 
V:6 bass 
V:1
 z6[Q:1/4=100] | z6 | z6 | z6 |[M:7/16] z7/2 |[M:3/8] DDE |[M:3/4] G3 F FE | D3 F FG | B3 A AG | %9
[M:3/8] F2 E | A^GA |[M:3/4] d3 d c=c | B3 B cd | AF G2 E2 |[M:7/16] D/-D/-D/-D-<D |[M:4/4] z8 | %16
 z8 | z8 |[M:5/8] z5 |[M:3/8] z3 | z3 |[M:4/4] z8 | z8 | z8 |[M:11/16] z11/2 |] %25
V:2
 z2 z D z E | G3 F cB | [A,A]-[A,-CA-] [A,DA]d dB | AF [G,E]4 | %4
[M:7/16][K:bass] [A,D]/-[A,D]/-[A,D]/-[A,D]-<[A,D] |[M:3/8][K:treble] DDE | %6
[M:3/4] G3 [DF] [A,CF][K:bass][A,CE] | D4[K:treble] z2 | B4 z2 |[M:3/8] [DF]2 [CE] | %10
 [CA][D^G][E=G] |[M:3/4] FG F[Fd] [Gc][A=c] | B4 z2 | AF .[A,B,G]2[K:bass] .[G,CE]2 | %14
[M:7/16] D/-D/-D/-D-<D |[M:4/4][K:treble] z2 z A- A4[K:bass][K:treble] | %16
 z2 z A- A4[K:bass][K:treble] | z2 z B- B4 |[M:5/8] z z2 A2- |[M:3/8] A3 | AFA | %21
[M:4/4] d6[K:bass][K:treble] z2 | c4 z4 | [FA]6 z2 |[M:11/16] D/-D/-D/-D/-D/-D/-D/-D-<D |] %25
V:3
 z2 z2 D2 | x6 | .F2 z2 z2 | z2 .D2 z2 |[M:7/16][K:bass] G,-<G,F,3/2 |[M:3/8][K:treble] x3 | %6
[M:3/4] x5[K:bass] x | [F,A,][^G,^A,] =A,[K:treble]F FG | z ^G =GA AG |[M:3/8] x3 | x3 | %11
[M:3/4] x6 | z ^D z B cd | x4[K:bass] x2 |[M:7/16] [F,A,][^G,^A,]=A,3/2 | %15
[M:4/4][K:treble] FF .G2 A,[K:bass]F,A,[K:treble]D | FG .B2 A,[K:bass]F,A,[K:treble]D | %17
 Ad .c2 B,G,B,D |[M:5/8] dcB z A, |[M:3/8] F,A,D | x3 |[M:4/4] z[K:bass] A,F,A,[K:treble] DcB^A | %22
 z DDB B[Bd][Ac][GB] | z DDD DF[CG][CE] |[M:11/16] x11/2 |] %25
V:4
 z6 | D4 z2 | D,E, z[K:treble] [=CA] [G,B,G][^G,D=F] | [A,DF][A,D][K:bass] z C B,A, | %4
[M:7/16] D,-<D,D,3/2 |[M:3/8] z F,G, |[M:3/4] B,2 B,A, z G, | z =F, ^F,A, A,B, | %8
 z =F [CE][=CD^F] B,[K:bass]^A, |[M:3/8] A,^G,A, | A,,B,,C, |[M:3/4] z B, A,[D,A,] [E,A,][F,D] | %12
 [G,DG][F,A,] [E,G,]2 E-[^G,B,E] | [DF]D[K:bass] z C z A, |[M:7/16] z =F,^F,3/2 | %15
[M:4/4][K:treble] z2 z F- F4[K:bass] | z2[K:treble] z F- F4[K:bass] | z2 z G- G4 | %18
[M:5/8] z z2[K:bass] F2- |[M:3/8] F3 | FDF |[M:4/4] F6[K:bass][K:treble] z2 | A4 z4[K:bass] | %23
 [A,D]A,A,A, A,[A,D][A,,E,][A,,G,] | %24
[M:11/16] [D,F,]/-[D,F,]/-[D,F,]/-[D,F,]/-[D,F,]/-[D,F,]/-[D,F,]/-[D,F,]-<[D,F,] |] %25
V:5
 z2 z [D,F,] F,G, | B,3 A, [^G,=F]2 | z2 F,2[K:treble] z2 | z2[K:bass] A,,4 |[M:7/16] x7/2 | %5
[M:3/8] x3 |[M:3/4] z2 z2 A,,2 | D,4 z2 | D2 z2 D2[K:bass] |[M:3/8] x3 | x3 |[M:3/4] [D,D]4 z2 | %12
 z2 z2 .E,2 | A,2[K:bass] A,,2 A,,2 |[M:7/16] D,/-D,/-D,/-D,-<D, | %15
[M:4/4][K:treble] DD .E2 D,[K:bass]D,D,D, | DE[K:treble] .G2 D,[K:bass]D,D,D, | FF .A2 .G,2 G,G, | %18
[M:5/8] BAG[K:bass] z D, |[M:3/8] D,D,D, | x3 |[M:4/4] z[K:bass] D,D,D, D,[K:treble]AGG | %22
 z G,G,[G,DG] [G,DG][K:bass][G,B,][G,C][G,D] | x8 |[M:11/16] x11/2 |] %25
V:6
 z2 z2 D,2- | D,6 | x3[K:treble] x3 | x2[K:bass] x4 |[M:7/16] x7/2 |[M:3/8] x3 |[M:3/4] x6 | x6 | %8
 x5[K:bass] x |[M:3/8] x3 | x3 |[M:3/4] x6 | x6 | x2[K:bass] x4 |[M:7/16] x7/2 | %15
[M:4/4][K:treble] x5[K:bass] x3 | x2[K:treble] x3[K:bass] x3 | x8 |[M:5/8] x3[K:bass] x2 | %19
[M:3/8] x3 | x3 |[M:4/4] x[K:bass] x4[K:treble] x3 | x5[K:bass] x3 | x8 |[M:11/16] x11/2 |] %25
V:7
 x6 | x6 | x6 | x6 |[M:7/16][K:bass] x7/2 |[M:3/8][K:treble] x3 |[M:3/4] x5[K:bass] x | %7
 x3[K:treble] x3 | x6 |[M:3/8] x3 | x3 |[M:3/4] x6 | z2 E2 z2 | x4[K:bass] x2 |[M:7/16] x7/2 | %15
[M:4/4][K:treble] x5[K:bass] x2[K:treble] x | x5[K:bass] x2[K:treble] x | x8 |[M:5/8] x5 | %19
[M:3/8] x3 | x3 |[M:4/4] x[K:bass] x3[K:treble] x4 | x8 | x8 |[M:11/16] x11/2 |] %25

